X: 41728
T: Valse A Donald
R: waltz
M: 3/4
K: Gmajor
D GA|B6|B3A G2|e4d2|B4GA|
Bdd4|B3AG2|E3GGB|A3DGA|
B6|B3A G2|e4d2|B4GA|Bdd4|
B3AG2|E4G2|1 G3:|2 G2g3d||
e6|e2g3e|dBB3A|B2g2d2|e2c2d2|
e2f2g2|a6|g2f2d2|e6|e2g3e|dBB3A|
[1B2G2A2|B3AB2|c3Bc2|d2B2d2|e2g3f:|
[2B2g2d2|e2c2e2|f3df2|g3eg2|a2z||

